!!!!SEGMENT: pl-sa--82-a-ii-22--004_anonim--missa-ex-f-sanctus.krn
!!!cenid: 17xx:1534
!!!COM: Anonim
!!!COM-rismID: pe30004985
!!!CDT:
!!!CNT:
!!!OPR: Missa ex F
!!!OTL: Sanctus
!!!OMV: 004
!!!PDT:
!!!AGN: Sacred; Mass
!!!SMS-siglum: PL-SA
!!!SMS-shelfmark: 82/A II 22
!!!SMS-shelfwork: 001-004 M
!!!SMS-variant:
!!!SMS-altvar:
!!!NIFC-rismSourceID: 1001035461
!!!NIFC-islandoraID:
!!!URL-pdf-islandora:
!!!URL-scan: https://bc.bdsandomierz.pl/dlibra/publication/1360/edition/1328/content @EN{Scan in the Sandomierz Diocese Digital Library} @PL{Skany w portalu Cyfrowa Biblioteka Diecezjalna w Sandomierzu}
!!!ONB-nifc: UWAGA: części Mszy: 1. Kyrie, 2. Gloria, 3. Patrem, 4. Sanctus, 5. Benedictus, 6. Agnus Dei
!!!AIN: 1 cbass 2 soprn 2 violn
!!!key: B-
**kern	**kern	**kern	**kern	**text	**kern	**text
*part5	*part4	*part3	*part2	*part2	*part1	*part1
*group2	*group2	*group2	*group1	*group1	*group1	*group1
*staff5	*staff4	*staff3	*staff2	*staff2	*staff1	*staff1
*I"Baſso.	*I"Violino 2do	*I"Violino Primo	*I"Canto 2do.	*	*I"Canto =	*
*I'b	*I'vl 2	*I'vl 1	*I'S 2	*	*I'S 1	*
*Icbass	*Ivioln	*Ivioln	*Isoprn	*	*Isoprn	*
*ICstr	*ICstr	*ICstr	*ICvox	*	*ICvox	*
*clefF4	*clefG2	*clefG2	*clefC1	*	*clefC1	*
*k[e-b-]	*k[b-e-]	*k[b-e-]	*k[b-e-]	*	*k[b-e-]	*
*B-:	*B-:	*B-:	*B-:	*	*B-:	*
*M3/4	*M3/4	*M3/4	*M3/4	*	*M3/4	*
=1	=1	=1	=1	=1	=1	=1
*2\right	*2\right	*2\right	*2\right	*	*2\right	*
!LO:TX:t=P:znaki:problem= B- zamiast BB-	!	!	!	!	!LO:TX:t=P:znaki:problem=ee- zamiast e-	!
!LO:TX:a:B:t=Adagio	!LO:TX:a:B:t=Adagio	!LO:TX:a:B:t=Adagio	!LO:TX:a:B:t=Ada.	!	!LO:TX:a:B:t=Adagio	!
4BB-/	4b-\	4dd\	4b-\	San-	4dd\	San-
4B-\	4b-\	4dd\	4b-\	-ctus	4dd\	-ctus
4r	4r	4r	4r	.	4r	.
=2	=2	=2	=2	=2	=2	=2
*	*	*	*	*ij	*	*
4FF/	4cc\	4ee-\	4cc\	San-	4ee-\	San-
4F\	4cc\	4ee-\	4cc\	-ctus	4ee-\	-ctus.
*	*	*	*	*Xij	*	*
4r	4r	4r	4r	.	4r	.
=3	=3	=3	=3	=3	=3	=3
4FF/	4a\	4cc\	4a\	San-	4cc\	San-
4F\	4a\	4cc\	4a\	-ctus	4cc\	-ctus.
4r	4r	4r	4r	.	4r	.
=4	=4	=4	=4	=4	=4	=4
4BB-/	8b-\L	8dd\L	8b-\	Do-	8dd\	Do-
.	16dd\L	16ff\L	16dd\	-mi-	16ff\	-mi-
!	!	!	!	!	!LO:N:vis=16.	!
.	16dd\JJ	16ff\JJ	16dd\	-nus	16ff\	-nus
4r	8dd\L	(8ff\L	8dd\L	De-	8ff\L	De-
.	8cc\	8ee-\	8cc\J	.	8ee-\J	.
*	*	*	*	*	*	*
4F\	8cc\	8ee-\	8cc\L	-us	8ee-\L	-us
.	8b-\J	8dd\J)	8b-\J	.	8dd\J	.
*	*	*	*	*	*	*
=5	=5	=5	=5	=5	=5	=5
8r	8b-\L	8dd\L	8b-\L	Sa-	8dd\L	Sa-
8F\	8a\J	8cc\J	8a\J	-ba-	8cc\J	-ba-
2FF;/	2a;/	2cc;\	2a;\	-hoth	2cc;\	-oth
!	!	!	!LO:LB:g=original	!	!LO:LB:g=original	!
=6||	=6||	=6||	=6||	=6||	=6||	=6||
*k[b-e-]	*k[b-e-]	*k[b-e-]	*k[b-e-]	*	*k[b-e-]	*
*M3/8	*M3/8	*M3/8	*M3/8	*	*M3/8	*
!LO:TX:t=P:znaki:problem= B- zamiast BB-	!	!	!	!	!	!
!LO:TX:t=P:problem=mixed beam	!	!	!	!	!	!
!LO:TX:b:t=Pleni	!LO:TX:b:t=Pleni	!LO:TX:b:t=Pleni	!	!	!LO:TX:t=P:znaki:problem=ee- zamiast e-	!
!LO:TX:a:B:t=allo.	!LO:TX:a:B:t=allo.	!LO:TX:a:B:t=allo.	!LO:TX:a:B:t=allo.	!	!LO:TX:a:B:t=allo.	!
8BB-/L	8b-\L	8dd\L	8b-\	Ple-	8dd\	Ple-
8B-\	8b-\	8dd\	8b-\	-ni	8dd\	-ni
8B-\J	8cc\J	8ee-\J	8cc\	sunt	8ee-\	sunt
=7	=7	=7	=7	=7	=7	=7
*tremolo	*	*	*	*	*	*
8B-\L	8dd\L	8ff\L	8dd\	Cae-	8ff\	Cae-
8B-\	8b-\J	8dd\J	8b-\	-li	8dd\	-li
8B-\J	8r	8r	8r	.	8r	.
*Xtremolo	*	*	*	*	*	*
=8	=8	=8	=8	=8	=8	=8
!LO:TX:t=P:problem=mixed beam	!	!	!	!	!	!
8FF/L	8a/L	8cc\L	8a\	Cae-	8cc\	Cae-
8F\	8a/	8cc\	8a\	-li	8cc\	-li
8F\J	8b-/J	8dd\J	8b-\	et	8dd\	et
=9	=9	=9	=9	=9	=9	=9
*tremolo	*	*	*	*	*	*
8F\L	8cc/L	8ee-\L	8cc\	ter-	8ee-\	ter-
8F\	8a/J	8cc\J	8a\	-ra	8cc\	-ra
8F\J	8r	8r	8r	.	8r	.
!	!	!LO:LB:g=original	!	!	!	!
=10	=10	=10	=10	=10	=10	=10
8BB-/L	8.b-\L	8.dd\L	8.b-\	glo-	8.dd\	glo-
8BB-/	.	.	.	.	.	.
.	16cc\K	16ee-\K	16cc\	-ri-	16ee-\	-ri-
8BB-/J	8dd\J	8ff\J	8dd\	-a	8ff\	-a
!	!LO:LB:g=original	!	!	!	!	!
=11	=11	=11	=11	=11	=11	=11
*	*	*	*	*ij	*	*ij
8BB-/L	8.dd\L	8.ff\L	8.dd\	glo-	8.ff\	glo-
8BB-/	.	.	.	.	.	.
.	16ee-\L	16gg\L	16ee-\LL	.	16gg\LL	.
8BB-/J	16dd\	16ff\	16dd\	-ri-	16ff\	-ri-
.	16cc\JJ	16ee-\JJ	16cc\JJ	-a	16ee-\JJ	-a
*Xtremolo	*	*	*	*Xij	*	*Xij
!	!	!	!LO:LB:g=original	!	!	!
=12	=12	=12	=12	=12	=12	=12
8BB-/L	8cc\L	8ee-\L	8cc\L	tu-	8ee-\L	tu-
8BB-/J	8b-\J	8dd\J	8b-\J	-a	8dd\J	-a
8r	8r	8r	8r	.	8r	.
!LO:LB:g=original	!	!	!	!	!	!
=13	=13	=13	=13	=13	=13	=13
*	*tremolo	*tremolo	*	*	*	*
8r	8a/L	8cc\L	8a\	o-	8cc\L	Oſ-
8A\L	8a/	8cc\	8a\	-ſsan-	8cc\	-san-
8F\J	8a/J	8cc\J	8a\	-na	8cc\J	-na
!	!	!	!	!	!LO:LB:g=original	!
=14	=14	=14	=14	=14	=14	=14
*	*	*	*	*ij	*	*
8r	8b-/L	8dd\L	8b-\	o-	8dd\	o-
8B-\L	8b-/	8dd\	8b-\	-ſsan-	8dd\	-san-
8F\J	8b-/J	8dd\J	8b-\	-na	8dd\	-na
*	*Xtremolo	*Xtremolo	*	*Xij	*	*
=15	=15	=15	=15	=15	=15	=15
8r	8.cc\L	8.ee-\L	8.cc\	In	8.ee-\	In
8c\L	.	.	.	.	.	.
.	16a\L	16cc\L	16a\LL	ne-	16cc\LL	ne-
8F\J	16b-\	16dd\	16b-\	.	16dd\	.
.	16cc\JJ	16ee-\JJ	16cc\JJ	.	16ee-\JJ	.
=16	=16	=16	=16	=16	=16	=16
*tremolo	*	*	*	*	*	*
!LO:TX:t=P:problem=mixed beam	!	!	!	!	!	!
8B-\L	8b-\L	8dd\L	8b-\	-xel-	8dd\	-xel-
8F\	8b-\J	8dd\J	8b-\	-cis	8dd\	-cis
8BB-/J	8r	8r	8r	.	8r	.
=17	=17	=17	=17	=17	=17	=17
*	*tremolo	*tremolo	*	*	*	*
8r	8a/L	8cc\L	8a\	o-	8cc\	o-
8A\L	8a/	8cc\	8a\	-san-	8cc\	-san-
8F\J	8a/J	8cc\J	8a\	-na	8cc\	-na
=18	=18	=18	=18	=18	=18	=18
*	*	*	*	*ij	*	*ij
8r	8b-/L	8dd\L	8b-\	o-	8dd\	o-
8B-\L	8b-/	8dd\	8b-\	-san-	8dd\	-saLn-
8F\J	8b-/J	8dd\J	8b-\	-na	8dd\	-na
*	*Xtremolo	*Xtremolo	*	*Xij	*	*Xij
!	!	!	!LO:LB:g=original	!	!	!
=19	=19	=19	=19	=19	=19	=19
8r	8.cc\L	8.ee-\L	8.cc\	In	8.ee-\	In
8c\L	.	.	.	.	.	.
.	16a\L	16cc\L	16a\LL	ne-	16cc\LL	ne-
8F\J	16b-\	16dd\	16b-\	.	16dd\	.
.	16cc\JJ	16ee-\JJ	16cc\JJ	.	16ee-\JJ	.
=20	=20	=20	=20	=20	=20	=20
*tremolo	*	*	*	*	*	*
!LO:TX:t=P:problem=mixed beam	!	!	!	!	!	!
8B-\L	8b-\L	8dd\L	8b-\	-xe-	8dd\	-xel-
8BB-/J	8b-\J	8dd\J	8b-\	-lcis	8dd\	-cis
8r	8r	8r	8r	.	8r	.
!	!	!	!LO:TX:b:t=Benedictus Tacett	!	!	!
==	==	==	==	==	==	==
*-	*-	*-	*-	*-	*-	*-
!!!system-decoration: [(g1)][(g2)]
!!!ENC: Katarzyna Serwa
!!!END: 2022-03-21
!!!ENC: Krzysztof Stępień
!!!END: 2021-02-02
